static/images/mobile/copyright/wikipedia-wordmark-ang.svg

<?xml version="1.0" encoding="UTF-8"?>
<svg width="120px" height="25px" viewBox="0 0 120 25" version="1.1" xmlns="http://www.w3.org/2000/svg" xmlns:xlink="http://www.w3.org/1999/xlink">
    <title>ang-wordmark</title>
    <g id="Page-1" stroke="none" stroke-width="1" fill="none" fill-rule="evenodd">
        <path d="M3.88585193,0 C2.99209029,0.361134593 1.7152926,0.580149058 0,0.706518533 L0.0392510296,1.37378604 C0.0392497736,1.46406968 0.0879223063,1.53080271 0.196255148,1.53079015 L1.09902883,1.57004118 C1.39694603,1.5700663 1.60065322,1.74314764 1.7270453,2.04105354 C1.86246073,2.33898455 1.92329919,2.88023427 1.92330045,3.72884781 L1.92330045,21.7450704 C1.92329794,22.6297949 1.56455106,23.1679045 0.824271621,23.3936136 L0.274757207,23.5506178 C0.14836638,23.5776978 0.0816396295,23.6809061 0.117753089,23.825375 L0.314008237,24.5318935 L4.19986017,23.4721157 L4.19986017,17.6629633 C5.3463909,16.7782388 6.27975401,16.0273698 7.06518533,15.3864036 C7.85060031,14.7454249 8.71370973,13.9553299 9.61650225,13.0705929 C10.5192772,12.1858684 11.2336283,11.3773223 11.7753089,10.637029 C12.3259952,9.89676088 12.778942,9.09723311 13.1490949,8.20346518 C13.5192227,7.3006915 13.6986507,6.4222723 13.6986507,5.5736462 C13.7076226,1.85419352 12.2455613,0 9.30249401,0 C8.49900597,0 7.72067878,0.273601657 6.90818121,0.824271621 C6.10469568,1.37499183 5.20194586,2.10464649 4.19986017,3.06158031 C4.1998564,1.86088817 4.22418827,0.942853692 4.27836223,0.274757207 C4.27835846,0.0851841545 4.1296002,0 3.88585193,0 Z M8.67447754,1.37378604 C9.59530795,1.37378604 10.2488206,1.80241984 10.637029,2.66907001 C11.0342432,3.53577043 11.2257945,4.85808423 11.2257945,6.67267503 C11.2257945,7.53935032 11.0161889,8.4268004 10.637029,9.30249401 C10.257849,10.1691819 9.71658923,11.0263867 8.94923475,11.893062 C8.18185891,12.7597373 7.45847939,13.5074662 6.79042812,14.1303707 C6.13138889,14.7533002 5.27416901,15.5041567 4.19986017,16.4069304 L4.19986017,4.27836223 C5.24708517,3.22211388 6.0921366,2.48342834 6.75117709,2.04105354 C7.41923087,1.59870386 8.06057511,1.37378604 8.67447754,1.37378604 Z M18.9899488,17.3187328 C18.9899488,17.9469077 19.2754829,18.318102 20.1891919,18.4037622 L20.7888134,18.4619672 C20.8744736,18.4619672 20.9601338,18.5179758 20.9601338,18.6321895 L20.9601338,19.231811 L20.9315804,19.290016 C20.9315804,19.290016 18.7615215,19.231811 17.8763659,19.231811 C17.0768705,19.231811 14.8497048,19.290016 14.8497048,19.290016 L14.792598,19.231811 L14.792598,18.6321895 C14.792598,18.5179758 14.8782582,18.4619672 14.9924719,18.4619672 L15.56354,18.4037622 C16.5058024,18.318102 16.7913365,17.8612475 16.7913365,17.3187328 L16.7913365,7.81044838 C16.7913365,7.18446985 16.4475974,7.00985479 15.56354,6.92639098 L14.9924719,6.86708776 C14.8782582,6.86708776 14.792598,6.84073077 14.792598,6.75287413 L14.792598,6.09504757 L14.8211514,6.03794076 C14.8211514,6.03794076 17.0768705,6.09504757 17.9620261,6.09504757 C18.7329681,6.09504757 20.9315804,6.03794076 20.9315804,6.03794076 L20.9601338,6.09504757 L20.9601338,6.72322252 C20.9601338,6.80888273 20.903027,6.86598955 20.7888134,6.86598955 L20.1891919,6.92419457 C19.3040363,7.00875658 18.9899488,7.23828204 18.9899488,7.81044838 L18.9899488,17.3187328 Z M27.4164984,17.3187328 C27.4164984,17.9469077 27.7876926,18.2609952 28.6157414,18.4037622 L28.9298289,18.4619672 C29.0154891,18.4894224 29.1011493,18.5179758 29.1011493,18.6321895 L29.1011493,19.231811 L29.0725959,19.290016 C29.0725959,19.290016 27.2737313,19.231811 26.4171291,19.231811 C25.6176337,19.231811 23.2762544,19.290016 23.2762544,19.290016 L23.2191476,19.231811 L23.2191476,18.6321895 C23.2191476,18.5179758 23.3048078,18.4619672 23.4190214,18.4619672 L23.9900896,18.4037622 C24.8466918,18.318102 25.217886,17.8612475 25.217886,17.3187328 L25.217886,7.81044838 C25.217886,7.18446985 24.9037986,7.00985479 23.9900896,6.92639098 L23.4190214,6.86708776 C23.3048078,6.86708776 23.2191476,6.84073077 23.2191476,6.75287413 L23.2191476,6.09504757 L23.247701,6.03794076 C23.247701,6.03794076 25.5890803,6.09504757 26.4742359,6.09504757 C27.2748295,6.09504757 29.0725959,6.03794076 29.0725959,6.03794076 L29.1011493,6.09504757 L29.1011493,6.72322252 C29.1011493,6.80888273 29.0440425,6.83743614 28.9298289,6.86598955 L28.6157414,6.92419457 C27.7305858,7.0944168 27.4164984,7.23828204 27.4164984,7.81044838 L27.4164984,12.123111 C28.3587608,12.123111 28.9012755,11.6398995 30.1576254,10.295693 C31.2997616,9.03714666 32.1849173,7.98506344 32.1849173,7.4392541 C32.1849173,7.20972863 31.9279366,6.95494439 31.3568685,6.86708776 C31.2426548,6.84073077 31.185548,6.80998094 31.185548,6.72432072 L31.185548,6.06539596 L31.2141014,6.03903896 C31.2141014,6.03903896 33.5269274,6.09614578 34.3549762,6.09614578 C35.0973647,6.09614578 36.3537146,6.03903896 36.3537146,6.03903896 L36.4393748,6.06539596 L36.4393748,6.72432072 C36.4393748,6.80998094 36.3537146,6.86708776 36.2109476,6.86708776 C35.0973647,6.95274798 34.3264227,7.00985479 33.2985001,8.18054446 L30.8429071,11.0051353 C30.3574992,11.521293 30.1861788,11.8331841 30.1861788,12.0627095 C30.1861788,12.23403 30.3003924,12.3756988 30.4431595,12.5470193 L34.7547238,17.7437392 C35.0973647,18.1423887 35.7826465,18.3148074 36.3537146,18.4279228 L36.4964816,18.455378 C36.5821419,18.4828332 36.6963555,18.53994 36.6963555,18.6256002 L36.6963555,19.2252218 L36.6106953,19.2537752 C36.6106953,19.2537752 35.0973647,19.2252218 34.2978693,19.2252218 C33.5840342,19.2252218 32.5561115,19.2537752 32.5561115,19.2537752 L32.5275581,19.2252218 L32.5275581,18.8825809 C32.5275581,18.5102884 32.4990047,18.1983973 32.099257,17.7415428 L28.9298289,13.8000745 C28.5015278,13.2279082 28.0446733,13.0873376 27.4164984,13.0873376 L27.4164984,17.3187328 L27.4164984,17.3187328 Z M42.8100791,17.3187328 C42.8100791,17.9469077 43.0956132,18.318102 44.0093222,18.4037622 L44.6089437,18.4619672 C44.694604,18.4619672 44.7802642,18.5179758 44.7802642,18.6321895 L44.7802642,19.231811 L44.7517108,19.290016 C44.7517108,19.290016 42.5816519,19.231811 41.6964963,19.231811 C40.8970009,19.231811 38.6698352,19.290016 38.6698352,19.290016 L38.6127284,19.231811 L38.6127284,18.6321895 C38.6127284,18.5179758 38.6983886,18.4619672 38.8126022,18.4619672 L39.3836703,18.4037622 C40.3259328,18.318102 40.6114668,17.8612475 40.6114668,17.3187328 L40.6114668,7.81044838 C40.6114668,7.18446985 40.2688259,7.00985479 39.3836703,6.92639098 L38.8126022,6.86708776 C38.6983886,6.86708776 38.6127284,6.84073077 38.6127284,6.75287413 L38.6127284,6.09504757 L38.6412818,6.03794076 C38.6412818,6.03794076 40.8970009,6.09504757 41.7821565,6.09504757 C42.5530985,6.09504757 44.7517108,6.03794076 44.7517108,6.03794076 L44.7802642,6.09504757 L44.7802642,6.72322252 C44.7802642,6.80888273 44.7231574,6.86598955 44.6089437,6.86598955 L44.0093222,6.92419457 C43.1241666,7.00875658 42.8100791,7.23828204 42.8100791,7.81044838 L42.8100791,17.3187328 Z M50.0648408,6.09614578 C50.8643362,6.09614578 52.0064725,6.03903896 53.0629485,6.03903896 C57.1153358,6.03903896 57.8577244,8.03667922 57.8577244,9.52365278 C57.8577244,11.2379554 57.0296756,13.9208774 52.9772883,13.9208774 C52.2634531,13.9208774 51.692385,13.8626724 51.1773255,13.6353433 L51.1773255,17.4593034 C51.1773255,18.0863801 51.5199663,18.2313436 52.4347736,18.3730124 L53.0069399,18.4586726 C53.1211535,18.4861278 53.207912,18.5168776 53.207912,18.6288949 L53.207912,19.2285164 L53.181555,19.2867214 C53.181555,19.2867214 51.0826641,19.2332658 50.1286993,19.2288111 L50.0110286,19.2285164 C49.2115332,19.2285164 47.0700277,19.2867214 47.0700277,19.2867214 L47.0414743,19.2285164 L47.0414743,18.6288949 C47.0414743,18.5146812 47.0985812,18.4861278 47.2127948,18.4586726 L47.8124163,18.3730124 C48.6975719,18.2587988 48.983106,18.0018181 48.983106,17.4593034 L48.9798114,7.86645699 C48.9798114,6.98130138 48.6086171,6.95274798 47.266607,6.86708776 C47.0952865,6.86708776 47.0667331,6.78252574 47.0667331,6.72432072 L47.0667331,6.06759237 L47.1238399,6.03903896 C47.552141,6.03903896 49.236792,6.09614578 50.0648408,6.09614578 Z M62.1233588,6.04091051 C62.4089039,6.04719973 64.4063218,6.08988491 66.2960168,6.09617413 L70.7607164,6.09660601 C71.6688206,6.09190027 73.5062025,6.04013717 73.5062025,6.04013717 L73.5630062,6.09694747 C73.5914092,7.31823158 73.7902222,8.42590608 73.9890362,9.50516994 L73.2789877,9.61877955 C72.9665662,8.56791535 72.4269277,7.0626127 70.6092057,7.0626127 L68.6210716,7.0626127 C68.0814342,7.0626127 67.7974156,7.23302163 67.7974156,7.71584875 L67.7974156,12.1465577 L69.5299331,12.1465577 C70.2967843,12.1465577 70.4955983,11.8057289 70.6376076,11.2376918 L70.779618,10.6412551 C70.8080198,10.5276455 70.8648235,10.4708352 70.9500291,10.4708352 L71.4328617,10.4708352 C71.4896654,10.4708352 71.5180684,10.4992458 71.5180684,10.5560451 C71.4612636,11.2092922 71.3476561,12.0045485 71.3476561,12.6861951 C71.3476561,13.3962415 71.4328617,13.9642786 71.5180684,14.6459253 L71.4612636,14.7027246 L70.9500291,14.7027246 C70.8364217,14.7027246 70.779618,14.6175256 70.7512161,14.5607153 L70.6376076,13.9358789 C70.4955983,13.3394312 70.2683824,13.0554127 69.5299331,13.0554127 L67.7974156,13.0554127 L67.7974156,17.4861216 C67.7974156,18.025759 68.1382379,18.196168 68.6210716,18.196168 L70.6376076,18.196168 C72.370124,18.196168 73.0233699,17.0600828 73.4493988,15.6399901 L74.1878492,15.7252001 C73.8470259,17.1168931 73.619811,18.2529673 73.5914092,19.1618332 L66.7749456,19.1618332 C66.5232014,19.1618332 66.2406492,19.1647671 65.954296,19.1693012 L65.6105761,19.1754249 C64.7553574,19.1922279 63.9631544,19.2186325 63.9631544,19.2186325 L63.9347525,19.1618332 L63.9347525,18.5369858 C63.9347525,18.4801865 63.9631544,18.3949766 64.0767629,18.3949766 L64.5595955,18.3381772 C65.4684559,18.2245676 65.7240748,17.9973484 65.7240748,17.4293113 L65.7240748,13.027013 L62.5430584,13.027013 C62.003421,13.027013 61.8330098,13.1690223 61.7194024,13.3962415 L59.6744634,17.4861216 C59.4188457,17.9973484 59.7596701,18.0825584 60.6117268,18.3381772 L60.8957465,18.3949766 C60.980952,18.4233762 61.0661576,18.4801865 61.0661576,18.5653855 L61.0661576,19.1618332 L61.0377557,19.2186325 C61.0377557,19.2186325 58.7087971,19.1618332 58.1691608,19.1618332 C57.6295245,19.1618332 56.4650452,19.2186325 56.4650452,19.2186325 L56.4366433,19.1618332 L56.4366433,18.5653855 C56.4366433,18.4801865 56.493447,18.3949766 56.6070544,18.3949766 C57.5443178,18.3097776 58.0839552,17.8269395 58.3111712,17.4293113 C58.8792082,16.5204564 60.185699,14.1062878 61.0661576,12.4021766 C61.5205872,11.4933107 63.1394984,8.25548617 63.1394984,7.46024085 C63.1394984,7.11941201 62.9406843,6.94900309 62.202235,6.86379313 C62.0318239,6.83539347 62.0318239,6.77859416 62.0318239,6.75018352 L62.0318239,6.09694747 L62.0886276,6.04013717 Z M52.8916281,6.86818596 C51.5199663,6.86818596 51.1773255,7.12516662 51.1773255,7.86755519 L51.1784237,12.8358479 C51.7494918,13.0653734 52.463327,13.0928286 53.0343951,13.0928286 C54.7486977,13.0928286 55.5734519,12.0627095 55.5734519,9.86629366 C55.5734519,7.41070069 54.459869,6.86818596 52.8916281,6.86818596 Z M65.0992318,6.86379313 C64.8152122,6.86379313 64.445987,7.31823158 64.1335666,7.99986729 L62.4578528,11.8625392 C62.429451,11.9193385 62.401048,11.9761378 62.401048,12.0045485 C62.401048,12.1181471 62.5714602,12.1465577 62.9690873,12.1465577 L65.7240748,12.1465577 L65.7240748,8.05667758 C65.7240748,7.17621133 65.468457,6.86379313 65.0992318,6.86379313 Z M70.973724,3.36212415 C71.1807417,3.36212415 71.2635499,3.58984855 71.2635499,3.71405587 C71.2635499,3.96248149 71.0358288,4.39721809 70.7667052,4.39721809 L66.1294903,4.39721809 C65.9431739,4.39721809 65.8603657,4.16949369 65.8603657,4.02458515 C65.8603657,3.77615953 66.0880868,3.36212415 66.3158068,3.36212415 Z M76.6985799,18.4619672 L77.3553083,18.4037622 C78.2130087,18.318102 78.4985427,18.0611213 78.4985427,17.1770639 L78.4985427,7.75443978 C78.4985427,7.00985479 78.2964725,7.00985479 77.3553083,6.92639098 L76.7293297,6.86708776 C76.6151161,6.86708776 76.5272595,6.80998094 76.5272595,6.72432072 L76.5272595,6.09614578 L76.5547147,6.03903896 C76.5547147,6.03903896 79.0685127,6.09614578 79.5835722,6.09614578 C80.1238905,6.09614578 82.6102333,6.03903896 83.3526219,6.03903896 C88.1210407,6.03903896 90.4635183,9.00859325 90.4635183,12.8061963 C90.4635183,17.8041407 86.9217977,19.2867214 83.754566,19.2867214 C81.4702934,19.2867214 80.4720224,19.2285164 79.5868668,19.2285164 C78.7291664,19.2285164 76.5580093,19.2867214 76.5580093,19.2867214 L76.5305541,19.2285164 L76.5305541,18.6288949 C76.5272595,18.5476275 76.5854645,18.4619672 76.6985799,18.4619672 Z M83.0670878,18.4619672 C86.2068643,18.4619672 87.9793719,17.293474 87.9793719,13.2927024 C87.9793719,10.3242464 87.3215454,6.86708776 82.5245731,6.86708776 C81.4109902,6.86708776 80.697155,7.0384082 80.697155,7.75443978 L80.697155,17.1770639 C80.697155,17.9743629 80.8959307,18.4619672 83.0670878,18.4619672 Z M96.3257523,17.3187328 C96.3257523,17.9469077 96.6112864,18.318102 97.5249954,18.4037622 L98.1246169,18.4619672 C98.2102771,18.4619672 98.2959374,18.5179758 98.2959374,18.6321895 L98.2959374,19.231811 L98.267384,19.290016 C98.267384,19.290016 96.0973251,19.231811 95.2132677,19.231811 C94.4126741,19.231811 92.1866066,19.290016 92.1866066,19.290016 L92.1284015,19.231811 L92.1284015,18.6321895 C92.1284015,18.5179758 92.2140618,18.4619672 92.3282754,18.4619672 L92.9004417,18.4037622 C93.8416059,18.318102 94.1282382,17.8612475 94.1282382,17.3187328 L94.1282382,7.81044838 C94.1282382,7.18446985 93.7844991,7.00985479 92.9004417,6.92639098 L92.3282754,6.86708776 C92.2140618,6.86708776 92.1284015,6.84073077 92.1284015,6.75287413 L92.1284015,6.09504757 L92.1569549,6.03794076 C92.1569549,6.03794076 94.4126741,6.09504757 95.2956333,6.09504757 C96.065477,6.09504757 98.2662858,6.03794076 98.2662858,6.03794076 L98.2926427,6.09504757 L98.2926427,6.72322252 C98.2926427,6.80888273 98.2333395,6.86598955 98.1213223,6.86598955 L97.5217008,6.92419457 C96.635447,7.00875658 96.3224577,7.23828204 96.3224577,7.81044838 L96.3257523,17.3187328 L96.3257523,17.3187328 L96.3257523,17.3187328 Z M105.781502,18.4037622 L106.609551,18.4619672 C106.723764,18.4619672 106.837978,18.5476275 106.837978,18.6892963 L106.837978,19.231811 L106.780871,19.290016 C106.780871,19.290016 103.66855,19.231811 102.983268,19.231811 C102.239781,19.231811 100.412363,19.290016 100.412363,19.290016 L100.354158,19.231811 L100.354158,18.6892963 C100.354158,18.5476275 100.439818,18.4619672 100.583684,18.4619672 C101.841132,18.376307 102.55277,18.1467816 103.352266,16.3193635 L109.690024,1.47049391 C110.003013,0.72810534 110.232539,0.441473067 110.663036,0.441473067 C111.060587,0.441473067 111.204453,0.72810534 111.431782,1.29917347 L117.28523,16.7751198 C117.686076,17.8898009 118.258242,18.3170038 119.400378,18.4312174 L119.713368,18.4586726 C119.857233,18.4586726 120,18.5432346 120,18.6881981 L120,19.2285164 L119.91434,19.2867214 C119.91434,19.2867214 117.715727,19.2285164 116.601046,19.2285164 C115.601677,19.2285164 112.802345,19.2867214 112.802345,19.2867214 L112.775988,19.2285164 L112.775988,18.6881981 C112.775988,18.5432346 112.833095,18.4586726 112.979157,18.4586726 L113.778652,18.4004676 C114.862583,18.3159056 115.264527,17.9710683 114.977895,17.1737693 L113.236137,12.3460472 L107.294832,12.3460472 C106.609551,12.3460472 106.43823,12.4602608 106.296561,12.8292587 L104.639365,16.9706009 C104.353831,17.6888289 104.725026,18.318102 105.781502,18.4037622 Z M112.777086,11.1490005 L110.007406,3.52633919 L109.950299,3.52633919 L107.094958,10.7789045 C106.980745,11.0666349 107.17952,11.1500987 107.807695,11.1500987 L112.777086,11.1500987 L112.777086,11.1490005 Z" id="ang-wordmark" fill="#000000" fill-rule="nonzero"></path>
    </g>
</svg>

<svg xmlns="http://www.w3.org/2000/svg" width="120" height="25"><path fill="#000" fill-rule="nonzero" d="M3.886 0C2.992.361 1.716.58 0 .707l.04.667c0 .09.048.157.156.157l.903.039c.298 0 .502.173.628.471.135.298.196.84.196 1.688v18.016c0 .885-.358 1.423-1.099 1.649l-.55.157c-.126.027-.192.13-.156.274l.196.707 3.886-1.06v-5.809c1.146-.885 2.08-1.636 2.865-2.277a38.853 38.853 0 0 0 2.552-2.315c.902-.885 1.617-1.694 2.158-2.434a11.23 11.23 0 0 0 1.374-2.434c.37-.902.55-1.78.55-2.63C13.708 1.855 12.246 0 9.302 0 8.5 0 7.721.274 6.908.824c-.803.551-1.706 1.28-2.708 2.238 0-1.201.024-2.12.078-2.787C4.278.085 4.13 0 3.886 0Zm4.788 1.374c.921 0 1.575.428 1.963 1.295.397.867.589 2.19.589 4.004 0 .866-.21 1.754-.589 2.63-.38.866-.92 1.723-1.688 2.59A32.852 32.852 0 0 1 6.79 14.13a61.316 61.316 0 0 1-2.59 2.277V4.278C5.247 3.222 6.092 2.483 6.75 2.041c.668-.442 1.31-.667 1.923-.667ZM18.99 17.319c0 .628.285 1 1.2 1.085l.599.058c.085 0 .171.056.171.17v.6l-.028.058s-2.17-.058-3.056-.058c-.8 0-3.026.058-3.026.058l-.057-.058v-.6c0-.114.085-.17.2-.17l.57-.058c.943-.086 1.228-.543 1.228-1.085V7.81c0-.626-.343-.8-1.227-.884l-.572-.059c-.114 0-.2-.026-.2-.114v-.658l.03-.057s2.255.057 3.14.057c.771 0 2.97-.057 2.97-.057l.028.057v.628c0 .086-.057.143-.171.143l-.6.058c-.885.085-1.2.314-1.2.886v9.509Zm8.426 0c0 .628.372.942 1.2 1.085l.314.058c.085.027.171.056.171.17v.6l-.028.058s-1.8-.058-2.656-.058c-.8 0-3.14.058-3.14.058l-.058-.058v-.6c0-.114.086-.17.2-.17l.571-.058c.857-.086 1.228-.543 1.228-1.085V7.81c0-.626-.314-.8-1.228-.884l-.571-.059c-.114 0-.2-.026-.2-.114v-.658l.029-.057s2.341.057 3.226.057c.8 0 2.599-.057 2.599-.057l.028.057v.628c0 .086-.057.114-.171.143l-.314.058c-.885.17-1.2.314-1.2.886v4.313c.943 0 1.485-.483 2.742-1.827 1.142-1.259 2.027-2.31 2.027-2.857 0-.23-.257-.484-.828-.572-.114-.026-.171-.057-.171-.143v-.659l.028-.026s2.313.057 3.141.057c.742 0 1.999-.057 1.999-.057l.085.026v.66c0 .085-.085.142-.228.142-1.114.086-1.885.143-2.912 1.314l-2.456 2.824c-.486.516-.657.828-.657 1.058 0 .171.114.313.257.484l4.312 5.197c.342.398 1.028.57 1.599.684l.142.027c.086.028.2.085.2.17v.6l-.085.029s-1.514-.029-2.313-.029c-.714 0-1.742.029-1.742.029l-.028-.029v-.342c0-.373-.029-.685-.429-1.141L28.93 13.8c-.427-.572-.884-.713-1.513-.713v4.232Zm15.394 0c0 .628.286 1 1.2 1.085l.599.058c.086 0 .171.056.171.17v.6l-.028.058s-2.17-.058-3.056-.058c-.799 0-3.026.058-3.026.058l-.057-.058v-.6c0-.114.085-.17.2-.17l.57-.058c.943-.086 1.228-.543 1.228-1.085V7.81c0-.626-.342-.8-1.227-.884l-.571-.059c-.115 0-.2-.026-.2-.114v-.658l.028-.057s2.256.057 3.141.057c.771 0 2.97-.057 2.97-.057l.028.057v.628c0 .086-.057.143-.171.143l-.6.058c-.885.085-1.199.314-1.199.886v9.509Zm7.255-11.223c.8 0 1.941-.057 2.998-.057 4.052 0 4.795 1.998 4.795 3.485 0 1.714-.828 4.397-4.88 4.397-.715 0-1.286-.058-1.8-.286v3.824c0 .627.342.772 1.257.914l.572.086c.114.027.2.058.2.17v.6l-.025.058s-2.1-.054-3.053-.058h-.118c-.8 0-2.941.058-2.941.058l-.029-.058v-.6c0-.114.058-.143.172-.17l.6-.086c.885-.114 1.17-.371 1.17-.914l-.003-9.593c0-.885-.371-.913-1.713-.999-.172 0-.2-.084-.2-.143v-.656l.057-.029c.428 0 2.113.057 2.94.057Zm12.058-.055c.286.006 2.283.049 4.173.055h4.465c.908-.004 2.745-.056 2.745-.056l.057.057c.028 1.221.227 2.329.426 3.408l-.71.114c-.312-1.051-.852-2.556-2.67-2.556h-1.988c-.54 0-.824.17-.824.653v4.43h1.733c.767 0 .966-.34 1.108-.908l.142-.597c.028-.113.085-.17.17-.17h.483c.057 0 .085.028.085.085-.057.653-.17 1.449-.17 2.13 0 .71.085 1.278.17 1.96l-.057.057h-.511c-.114 0-.17-.085-.199-.142l-.113-.625c-.142-.597-.37-.88-1.108-.88h-1.733v4.43c0 .54.341.71.824.71h2.017c1.732 0 2.385-1.136 2.811-2.556l.739.085c-.341 1.392-.568 2.528-.597 3.437h-6.816c-.252 0-.534.003-.82.007l-.344.006c-.856.017-1.648.044-1.648.044l-.028-.057v-.625c0-.057.028-.142.142-.142l.483-.057c.908-.113 1.164-.34 1.164-.909v-4.402h-3.18c-.54 0-.711.142-.825.37l-2.045 4.09c-.255.51.086.596.938.851l.284.057c.085.028.17.085.17.17v.597l-.028.057s-2.33-.057-2.869-.057c-.54 0-1.704.057-1.704.057l-.028-.057v-.597c0-.085.056-.17.17-.17.937-.085 1.477-.568 1.704-.966.568-.909 1.875-3.323 2.755-5.027.455-.909 2.073-4.147 2.073-4.942 0-.34-.198-.511-.937-.596-.17-.029-.17-.085-.17-.114v-.653l.057-.057Zm-9.231.827c-1.372 0-1.715.257-1.715 1l.001 4.968c.571.23 1.285.257 1.856.257 1.715 0 2.54-1.03 2.54-3.227 0-2.455-1.114-2.998-2.682-2.998Zm12.207-.004c-.284 0-.653.454-.965 1.136l-1.676 3.863c-.029.056-.057.113-.057.142 0 .113.17.142.568.142h2.755v-4.09c0-.88-.256-1.193-.625-1.193Zm5.875-3.502c.207 0 .29.228.29.352 0 .248-.228.683-.497.683h-4.638c-.186 0-.269-.228-.269-.372 0-.249.228-.663.456-.663Zm5.725 15.1.656-.058c.858-.086 1.144-.343 1.144-1.227V7.754c0-.744-.203-.744-1.144-.828l-.626-.059c-.114 0-.202-.057-.202-.143v-.628l.028-.057s2.514.057 3.029.057c.54 0 3.026-.057 3.769-.057 4.768 0 7.11 2.97 7.11 6.767 0 4.998-3.541 6.48-6.708 6.48-2.285 0-3.283-.057-4.168-.057-.858 0-3.029.058-3.029.058l-.027-.058v-.6a.16.16 0 0 1 .168-.167Zm6.368 0c3.14 0 4.912-1.169 4.912-5.17 0-2.968-.657-6.425-5.454-6.425-1.114 0-1.828.171-1.828.887v9.423c0 .797.199 1.285 2.37 1.285Zm13.259-1.143c0 .628.285 1 1.199 1.085l.6.058c.085 0 .17.056.17.17v.6l-.028.058s-2.17-.058-3.054-.058c-.8 0-3.026.058-3.026.058l-.059-.058v-.6c0-.114.086-.17.2-.17l.572-.058c.942-.086 1.228-.543 1.228-1.085V7.81c0-.626-.344-.8-1.228-.884l-.572-.059c-.114 0-.2-.026-.2-.114v-.658l.029-.057s2.256.057 3.139.057c.77 0 2.97-.057 2.97-.057l.027.057v.628c0 .086-.06.143-.172.143l-.6.058c-.886.085-1.199.314-1.199.886l.004 9.509Zm9.456 1.085.828.058c.114 0 .228.086.228.227v.543l-.057.058s-3.112-.058-3.798-.058c-.743 0-2.57.058-2.57.058l-.059-.058v-.543c0-.141.086-.227.23-.227 1.257-.086 1.969-.315 2.768-2.143L109.69 1.47c.313-.742.543-1.029.973-1.029.398 0 .541.287.769.858l5.853 15.476c.401 1.115.973 1.542 2.115 1.656l.313.028c.144 0 .287.084.287.23v.54l-.086.058s-2.198-.058-3.313-.058c-1 0-3.799.058-3.799.058l-.026-.058v-.54c0-.146.057-.23.203-.23l.8-.059c1.084-.084 1.486-.429 1.199-1.226l-1.742-4.828h-5.941c-.685 0-.857.114-.998.483l-1.658 4.142c-.285.718.086 1.347 1.143 1.433Zm6.995-7.255-2.77-7.623h-.057l-2.855 7.253c-.114.288.085.371.713.371h4.97v-.001Z"/></svg>
